X: 14762
T: Gan Ainm
R: jig
M: 6/8
K: Gmajor
M: 12/8
|:d3 g2 d B2 G G2 B|A3 Bcd e2 A A2 B|
[1d3 g2 d B2 G G2 B|A2 B cAG|F2 D D3:|
[2 gfe f2 d e2 ^c d2 B|A2B cAG F2 D DEF||
|:G3 B2 c d2 c BAG|A3 Bcd e2 d cAF|
G3 B2 c d2 c BAG|1 ABA cAG F2 D DEF:|2 ABA cAG F2 D D3|

